public/bg-top.svg

<svg fill="none" height="1131" viewBox="0 0 1440 1131" width="1440" xmlns="http://www.w3.org/2000/svg"><g fill="#f2f2f2"><path d="m-602-97.8369c0 677.1059 558.162 1228.1569 1244 1228.1569 685.84 0 1244-551.051 1244-1228.1569v-1202.5031c0-677.11-558.16-1228.16-1244-1228.16-685.838 0-1244 551.05-1244 1228.16z" opacity=".5"/><path d="m-434-263.337c0 677.106 558.162 1228.16 1244 1228.16 685.84 0 1244-551.054 1244-1228.16v-1202.503c0-677.11-558.16-1228.16-1244-1228.16-685.838 0-1244 551.05-1244 1228.16z"/></g></svg>

<svg width="1440" height="1131" viewBox="0 0 1440 1131" fill="none" xmlns="http://www.w3.org/2000/svg">
<path opacity="0.5" d="M-602 -97.8369C-602 579.269 -43.838 1130.32 642 1130.32C1327.84 1130.32 1886 579.269 1886 -97.8369V-1300.34C1886 -1977.45 1327.84 -2528.5 642 -2528.5C-43.838 -2528.5 -602 -1977.45 -602 -1300.34V-97.8369Z" fill="#f2f2f2"/>
<path d="M-434 -263.337C-434 413.769 124.162 964.823 810 964.823C1495.84 964.823 2054 413.769 2054 -263.337V-1465.84C2054 -2142.95 1495.84 -2694 810 -2694C124.162 -2694 -434 -2142.95 -434 -1465.84V-263.337Z" fill="#f2f2f2"/>
</svg>
